female.svg

<?xml version="1.0" encoding="UTF-8" standalone="no"?>
<svg
   xmlns:dc="http://purl.org/dc/elements/1.1/"
   xmlns:cc="http://creativecommons.org/ns#"
   xmlns:rdf="http://www.w3.org/1999/02/22-rdf-syntax-ns#"
   xmlns:svg="http://www.w3.org/2000/svg"
   xmlns="http://www.w3.org/2000/svg"
   xmlns:sodipodi="http://sodipodi.sourceforge.net/DTD/sodipodi-0.dtd"
   xmlns:inkscape="http://www.inkscape.org/namespaces/inkscape"
   version="1.0"
   width="570"
   height="1052"
   viewBox="72 0 570 1052"
   id="svg2983"
   inkscape:version="0.48.1 r9760"
   sodipodi:docname="female.svg">
  <metadata
     id="metadata2995">
    <rdf:RDF>
      <cc:Work
         rdf:about="">
        <dc:format>image/svg+xml</dc:format>
        <dc:type
           rdf:resource="http://purl.org/dc/dcmitype/StillImage" />
      </cc:Work>
    </rdf:RDF>
  </metadata>
  <defs
     id="defs2993" />
  <sodipodi:namedview
     pagecolor="#ffffff"
     bordercolor="#666666"
     borderopacity="1"
     objecttolerance="10"
     gridtolerance="10"
     guidetolerance="10"
     inkscape:pageopacity="0"
     inkscape:pageshadow="2"
     inkscape:window-width="640"
     inkscape:window-height="480"
     id="namedview2991"
     showgrid="false"
     inkscape:zoom="0.79314259"
     inkscape:cx="398.96376"
     inkscape:cy="758.87021"
     inkscape:window-x="839"
     inkscape:window-y="271"
     inkscape:window-maximized="0"
     inkscape:current-layer="g2985" />
  <g
     transform="matrix(2.08276,0,0,2.08276,-786.0753,-421.7896)"
     id="g2985">
    <path
       id="path2558"
       style="fill:#000000"
       d="m 536.32206,287.10162 c -11.62991,-4.15383 -18.81782,-10.55671 -23.90559,-21.29473 -2.81602,-5.9434 -3.01909,-7.08514 -3.01909,-16.9747 0,-10.00687 0.17482,-10.95783 3.11089,-16.92183 14.66497,-29.78877 57.00287,-29.86181 71.64295,-0.12359 3.03128,6.15739 3.17173,6.93355 3.17173,17.52644 0,10.18747 -0.21746,11.52656 -2.68918,16.5599 -4.15214,8.45526 -10.28491,14.62054 -18.66163,18.76054 -6.50377,3.21433 -8.15528,3.61456 -16.03882,3.88691 -6.61523,0.22851 -9.98108,-0.12237 -13.61126,-1.41894 z m -81.24834,255.13353 49.75002,0 0.50507,141.16882 c 0,0 1.49266,15.17857 18.45695,15.26786 18.92854,0.0947 19.17123,-15.26786 19.17123,-15.26786 l 0.0446,-142.17198 11.06704,-0.007 0,142.17898 c 0,0 1.96076,15.26786 18.83576,15.26786 17.58951,-0.002 19.55004,-15.26786 19.55004,-15.26786 l -0.19126,-140.91629 49.94127,-0.3788 -54.42197,-187.63584 9.21765,-0.25254 0,0 32.95622,109.72782 c 0,0 7.88376,15.25978 21.31422,9.2429 13.45368,-6.02729 10.00051,-20.10204 10.00051,-20.10204 L 624.03968,329.25512 c 0,0 -7.01258,-13.82522 -16.70373,-20.86472 -9.69115,-7.0395 -23.84659,-10.86471 -23.84659,-10.86471 l -68.94291,0.25254 c 0,0 -14.16086,2.72221 -23.94671,9.73015 -9.78585,7.00793 -16.80663,21.80772 -16.80663,21.80772 l -37.79368,122.02064 c 0,0 -2.69216,16.30842 12.12927,21.35306 15.84992,5.43798 20.70069,-11.50407 20.70069,-11.50407 l 31.57493,-106.58642 7.82868,0 -53.15928,187.63584 z" />
  </g>
</svg>

<?xml version="1.0" encoding="UTF-8" standalone="no"?>
<svg
   xmlns:svg="http://www.w3.org/2000/svg"
   xmlns="http://www.w3.org/2000/svg"
   version="1.0"
   width="570" height="1052" viewBox="72 0 570 1052">
  <g transform="matrix(2.08276,0,0,2.08276,-786.0753,-421.7896)">
    <path transform="translate(-13.38452,-3.282995)"
       d="M 599.52555 250.30106 A 37.375645 36.36549 0 1 1  524.77426,250.30106 A 37.375645 36.36549 0 1 1  599.52555 250.30106 z"
       style="opacity:1;fill:#000000;fill-opacity:1;fill-rule:evenodd;stroke:#000000;stroke-width:2.97633791;stroke-linecap:square;stroke-linejoin:miter;stroke-miterlimit:4;stroke-dasharray:none;stroke-dashoffset:0;stroke-opacity:1"/>
    <path
       d="M 455.07372,542.23515 L 504.82374,542.23515 L 505.32881,683.40397 C 505.32881,683.40397 506.82147,698.58254 523.78576,698.67183 C 542.7143,698.76651 542.95699,683.40397 542.95699,683.40397 L 543.00163,541.23199 L 554.06867,541.22499 L 554.06867,683.40397 C 554.06867,683.40397 556.02943,698.67183 572.90443,698.67183 C 590.49394,698.66955 592.45447,683.40397 592.45447,683.40397 L 592.26321,542.48768 L 642.20448,542.10888 L 587.78251,354.47304 L 597.00016,354.2205 L 597.00016,354.2205 L 629.95638,463.94832 C 629.95638,463.94832 637.84014,479.2081 651.2706,473.19122 C 664.72428,467.16393 661.27111,453.08918 661.27111,453.08918 L 624.03968,329.25512 C 624.03968,329.25512 617.0271,315.4299 607.33595,308.3904 C 597.6448,301.3509 583.48936,297.52569 583.48936,297.52569 L 514.54645,297.77823 C 514.54645,297.77823 500.38559,300.50044 490.59974,307.50838 C 480.81389,314.51631 473.79311,329.3161 473.79311,329.3161 L 435.99943,451.33674 C 435.99943,451.33674 433.30727,467.64516 448.1287,472.6898 C 463.97862,478.12778 468.82939,461.18573 468.82939,461.18573 L 500.40432,354.59931 L 508.233,354.59931 L 455.07372,542.23515 z "
       style="opacity:1;fill:#000000;fill-opacity:1;fill-rule:evenodd;stroke:#000000;stroke-width:0.48013198px;stroke-linecap:butt;stroke-linejoin:miter;stroke-opacity:1"/>
  </g>
</svg>
